assets/icons/informations/mail.svg

<svg viewBox="0 0 24 24" xmlns="http://www.w3.org/2000/svg">
<path d="M4 20C3.45 20 2.97917 19.8042 2.5875 19.4125C2.19583 19.0208 2 18.55 2 18V6C2 5.45 2.19583 4.97917 2.5875 4.5875C2.97917 4.19583 3.45 4 4 4H20C20.55 4 21.0208 4.19583 21.4125 4.5875C21.8042 4.97917 22 5.45 22 6V18C22 18.55 21.8042 19.0208 21.4125 19.4125C21.0208 19.8042 20.55 20 20 20H4ZM12 12.825C12.0833 12.825 12.1708 12.8125 12.2625 12.7875C12.3542 12.7625 12.4417 12.725 12.525 12.675L19.6 8.25C19.7333 8.16667 19.8333 8.0625 19.9 7.9375C19.9667 7.8125 20 7.675 20 7.525C20 7.19167 19.8583 6.94167 19.575 6.775C19.2917 6.60833 19 6.61667 18.7 6.8L12 11L5.3 6.8C5 6.61667 4.70833 6.6125 4.425 6.7875C4.14167 6.9625 4 7.20833 4 7.525C4 7.69167 4.03333 7.8375 4.1 7.9625C4.16667 8.0875 4.26667 8.18333 4.4 8.25L11.475 12.675C11.5583 12.725 11.6458 12.7625 11.7375 12.7875C11.8292 12.8125 11.9167 12.825 12 12.825Z" fill="inherit"/>
</svg>

<svg viewBox="0 0 24 24" xmlns="http://www.w3.org/2000/svg"><path d="M4 20a2 2 0 0 1-1.4-.6A2 2 0 0 1 2 18V6c0-.5.2-1 .6-1.4A2 2 0 0 1 4 4h16c.6 0 1 .2 1.4.6.4.4.6.9.6 1.4v12c0 .6-.2 1-.6 1.4a2 2 0 0 1-1.4.6H4Zm8-7.2a1 1 0 0 0 .5-.1l7.1-4.4a.8.8 0 0 0 .4-.8c0-.3-.1-.6-.4-.7-.3-.2-.6-.2-.9 0L12 11 5.3 6.8c-.3-.2-.6-.2-.9 0-.3.2-.4.4-.4.7l.1.5.3.3 7 4.4a1 1 0 0 0 .6.1Z" fill="inherit"/></svg>
